lib/logo_updates/nrk-logo-nrk-klassisk-title-below-on-dark.svg

<svg width="212" height="104" viewBox="0 0 212 104" fill="none" xmlns="http://www.w3.org/2000/svg">
<path d="M0 43V1.00381H13.7802V43H0ZM32.5283 7.68773L40.4532 43H25.3721L15.9092 1.00381H24.3676C26.3072 0.978642 28.1892 1.66237 29.6607 2.92636C31.1347 4.13734 32.1473 5.81844 32.5283 7.68773ZM42.5233 43V1.00381H56.3035V43H42.5233ZM66.7116 16.9743C65.2267 16.9888 63.7656 16.6003 62.4839 15.8504C61.2193 15.1194 60.1688 14.0689 59.438 12.8041C58.6872 11.5222 58.2986 10.0607 58.3134 8.57511C58.2964 7.09861 58.6853 5.64583 59.438 4.3755C60.1766 3.12447 61.2259 2.08533 62.4839 1.35882C63.766 0.609758 65.2269 0.221301 66.7116 0.234844C68.1877 0.218947 69.6399 0.607751 70.9108 1.35882C72.1562 2.09169 73.1943 3.12996 73.9271 4.3755C74.6789 5.64618 75.0677 7.09873 75.0517 8.57511C75.0655 10.0605 74.6769 11.5218 73.9271 12.8041C73.202 14.0633 72.1627 15.113 70.9108 15.8504C69.6398 16.6029 68.1866 16.9918 66.7097 16.9743H66.7116ZM77.1807 43V1.00381H90.9621V43H77.1807ZM108.408 23.9538C108.447 23.9946 108.742 24.4776 109.295 25.403C109.848 26.3283 110.567 27.5114 111.454 28.952C112.341 30.392 113.277 31.9199 114.262 33.536C115.247 35.1521 116.174 36.6803 117.043 38.1202C117.908 39.5602 118.894 41.1867 120 43H104.859C103.912 41.4621 103.055 40.0721 102.286 38.83C101.517 37.5878 100.7 36.2471 99.8334 34.8077C98.9653 33.3698 98.1071 31.9699 97.2587 30.6081C96.4103 29.2464 95.6813 28.0536 95.0714 27.0297C94.459 26.0051 94.0348 25.3149 93.7989 24.9594C93.2139 24.0771 92.8677 23.058 92.7944 22.0019C92.853 20.9883 93.1791 20.0084 93.7397 19.1619C93.9762 18.7676 94.41 18.0675 95.0409 17.062C95.6717 16.0564 96.411 14.8637 97.2587 13.4835C98.1064 12.1034 98.9647 10.6936 99.8334 9.25431C100.702 7.81501 101.519 6.46432 102.286 5.20247C103.056 3.94193 103.914 2.54205 104.859 1.00285H120L108.289 20.1082C107.926 20.6755 107.722 21.3292 107.697 22.0019C107.736 22.7081 107.983 23.3871 108.406 23.9538H108.408Z" fill="white"/>
<path d="M31.8479 61.0348H24.462L8.41012 79.5292H6.20421V61.0348H0V102.987H6.20421V84.0197H6.4129L23.8722 103.046L32.3217 102.986L12.2911 82.1871L31.8479 61.0348Z" fill="#EFB4ED"/>
<path d="M46.3537 98.6427C46.1477 98.6652 45.9407 98.6754 45.7334 98.6732C45.2886 98.6863 44.8459 98.6054 44.4344 98.4359C44.0762 98.2766 43.7695 98.0209 43.5482 97.6973C43.2916 97.3148 43.1203 96.8815 43.0459 96.4269C42.9395 95.8227 42.8902 95.2097 42.8983 94.5962V58.3758L36.8713 59.2622V97.2552C36.8462 98.251 37.0064 99.2428 37.344 100.18C37.6273 100.941 38.0942 101.621 38.7031 102.159C39.3096 102.679 40.027 103.053 40.8006 103.253C41.6591 103.475 42.543 103.584 43.4299 103.578C43.9036 103.578 44.3557 103.558 44.789 103.517C45.2223 103.477 45.6458 103.419 46.0594 103.341C46.4731 103.263 46.8178 103.184 47.0935 103.105L47.6842 98.4359C47.4479 98.4766 47.2116 98.516 46.9752 98.5541C46.7389 98.5922 46.5316 98.6217 46.3537 98.6427Z" fill="#EFB4ED"/>
<path d="M79.2951 99.2643C78.8631 99.3039 78.428 99.2385 78.0268 99.0737C77.6256 98.909 77.27 98.6496 76.9906 98.3178C76.4425 97.3715 76.2146 96.2735 76.3407 95.1872L76.4587 83.0153C76.4718 81.7389 76.3128 80.4666 75.9861 79.2327C75.6988 78.1512 75.2184 77.1307 74.568 76.2202C73.9109 75.3295 73.0759 74.5851 72.1159 74.034C71.0012 73.4002 69.7953 72.9418 68.541 72.675C67.0076 72.3437 65.4419 72.1851 63.8731 72.2022C62.6289 72.2017 61.386 72.2806 60.1518 72.4386C58.9851 72.5852 57.8296 72.812 56.694 73.1172C55.6413 73.4034 54.6057 73.749 53.592 74.1522L52.883 79.1746C53.8678 78.8188 54.8034 78.5233 55.6897 78.2883C56.576 78.0532 57.4327 77.8563 58.2599 77.6974C59.0704 77.5421 59.8891 77.4335 60.712 77.3724C61.5189 77.3133 62.317 77.2838 63.1062 77.2838C64.3107 77.2579 65.5131 77.3971 66.6799 77.6974C67.5315 77.9104 68.3146 78.3376 68.9548 78.9383C69.5246 79.5222 69.932 80.2449 70.1365 81.0348C70.3888 82.0092 70.5084 83.0132 70.4921 84.0197L70.4851 85.5029L63.5779 85.9696C61.2156 86.0356 58.888 86.5571 56.7236 87.5059C55.1037 88.2145 53.7054 89.3475 52.6762 90.7852C51.8025 92.0643 51.3387 93.5791 51.3467 95.1281C51.3356 96.5812 51.6913 98.0136 52.3808 99.2928C53.1033 100.608 54.1909 101.685 55.5123 102.396C57.1242 103.234 58.9257 103.642 60.7416 103.578C62.4431 103.617 64.1369 103.336 65.7345 102.749C67.1159 102.209 68.3799 101.406 69.457 100.386C69.8657 99.9934 70.2535 99.58 70.619 99.1471C70.7339 99.7591 70.9501 100.347 71.259 100.888C71.7858 101.793 72.5956 102.499 73.5635 102.897C74.6335 103.327 75.7786 103.537 76.9314 103.517C77.2859 103.517 77.6307 103.508 77.9655 103.487C78.2943 103.468 78.6206 103.419 78.9404 103.34C79.2556 103.26 79.5403 103.192 79.7973 103.133C80.0285 103.081 80.2555 103.012 80.4768 102.927L81.1266 98.9669C80.8005 99.0793 80.464 99.1587 80.1221 99.2042C79.8479 99.2411 79.5718 99.2612 79.2951 99.2643ZM69.457 96.6053C68.8164 97.1113 68.1229 97.5468 67.3889 97.9042C66.6578 98.2604 65.8829 98.519 65.0844 98.6733C64.2572 98.8327 63.4168 98.9119 62.5744 98.9096C61.611 98.9373 60.6531 98.756 59.7667 98.3779C59.0458 98.0643 58.4378 97.5384 58.0236 96.8702C57.6143 96.162 57.4097 95.354 57.4326 94.5363C57.3757 93.5515 57.6457 92.5756 58.2008 91.7602C58.8438 91.0092 59.7157 90.4902 60.6824 90.283C62.1919 89.9272 63.7412 89.7682 65.2914 89.8102H70.4654L70.4387 95.6747C70.1388 96.0126 69.8105 96.3239 69.457 96.6053Z" fill="#EFB4ED"/>
<path d="M105.41 89.3966C104.806 88.755 104.109 88.2071 103.343 87.7708C102.549 87.3173 101.719 86.9318 100.861 86.6185C100.231 86.4216 99.6103 86.2148 98.9997 85.9981C98.3892 85.7814 97.7785 85.5845 97.1679 85.4072C96.556 85.23 95.9651 85.0428 95.3953 84.8459C94.8595 84.6638 94.3365 84.4464 93.8296 84.195C93.344 83.9368 92.8796 83.6404 92.4409 83.3087C92.0357 83.0036 91.6944 82.6218 91.4364 82.1851C91.1758 81.737 91.0428 81.2262 91.0515 80.7079C91.0361 80.1384 91.1799 79.576 91.4669 79.0839C91.7753 78.6001 92.2025 78.2034 92.7078 77.9317C93.326 77.592 93.9941 77.3524 94.6872 77.2217C95.5536 77.0558 96.4344 76.977 97.3165 76.9863C97.7488 76.9863 98.2227 77.007 98.7338 77.0455C99.2449 77.0839 99.8072 77.1537 100.419 77.2522C101.03 77.3507 101.638 77.4788 102.25 77.6353C102.863 77.7919 103.481 77.9711 104.112 78.167C104.695 78.3475 105.267 78.5646 105.823 78.817L106.239 74.0319C105.49 73.7168 104.751 73.4408 104.023 73.2038C103.295 72.9687 102.556 72.7714 101.807 72.6128C101.076 72.4579 100.336 72.3494 99.5914 72.2879C98.8607 72.2288 98.1439 72.1993 97.4338 72.1993C95.8017 72.1828 94.1739 72.3713 92.5888 72.7606C91.2335 73.0902 89.9446 73.6498 88.7785 74.4151C87.7203 75.1141 86.8561 76.0694 86.2663 77.1921C85.6496 78.4292 85.3453 79.7987 85.3801 81.1805C85.3622 82.1759 85.5222 83.1663 85.8527 84.1053C86.1341 84.8926 86.5544 85.6232 87.0936 86.2621C87.6191 86.8647 88.2257 87.3917 88.8958 87.8279C89.5936 88.2858 90.336 88.6718 91.1116 88.98C91.5436 89.1376 91.9968 89.2948 92.4714 89.4517C92.9441 89.6103 93.4062 89.758 93.8601 89.8949C94.3141 90.0318 94.7542 90.1717 95.1895 90.3086C95.6247 90.4455 96.0453 90.5852 96.4589 90.7221C96.8725 90.859 97.2763 90.989 97.6702 91.1072C98.199 91.2941 98.713 91.521 99.2075 91.7858C99.6409 92.0158 100.047 92.2935 100.419 92.6139C100.745 92.9002 101.007 93.2527 101.187 93.648C101.366 94.0572 101.457 94.5 101.452 94.9469C101.473 95.3839 101.396 95.8202 101.228 96.2239C101.059 96.6276 100.803 96.9887 100.477 97.2808C99.7456 97.8924 98.8716 98.3094 97.9361 98.4931C96.8402 98.7346 95.7209 98.8532 94.5987 98.8466C93.8968 98.8421 93.1958 98.7932 92.5001 98.6999C91.7326 98.6015 90.9254 98.4636 90.0785 98.2863C89.2316 98.109 88.3648 97.8923 87.4785 97.6363C86.5915 97.3803 85.6954 97.0947 84.7901 96.7795L85.0254 101.802C86.049 102.157 86.9846 102.443 87.8322 102.659C88.6797 102.875 89.4875 103.062 90.2557 103.221C90.9955 103.375 91.7457 103.473 92.5001 103.517C93.2288 103.557 93.9674 103.577 94.7158 103.577C96.3642 103.585 98.0087 103.416 99.621 103.073C101.04 102.786 102.399 102.256 103.639 101.508C104.756 100.825 105.681 99.87 106.327 98.7314C107.003 97.4808 107.339 96.0746 107.3 94.6535C107.325 93.617 107.155 92.5851 106.799 91.6115C106.481 90.7916 106.01 90.0398 105.41 89.3966Z" fill="#EFB4ED"/>
<path d="M133.122 89.3967C132.517 88.7553 131.819 88.2074 131.053 87.7708C130.26 87.317 129.43 86.9315 128.571 86.6185C127.941 86.4216 127.32 86.2148 126.71 85.9981C126.099 85.7815 125.488 85.5845 124.878 85.4073C124.267 85.23 123.676 85.0428 123.105 84.8459C122.569 84.6636 122.047 84.4463 121.54 84.195C121.054 83.9368 120.589 83.6404 120.151 83.3087C119.746 83.0036 119.405 82.6218 119.148 82.1851C118.886 81.7372 118.753 81.2262 118.762 80.7079C118.747 80.1385 118.89 79.5761 119.177 79.0839C119.485 78.5997 119.912 78.2028 120.418 77.9317C121.036 77.592 121.704 77.3525 122.397 77.2217C123.263 77.0559 124.144 76.9771 125.026 76.9863C125.459 76.9863 125.932 77.0071 126.445 77.0455C126.958 77.0839 127.517 77.1538 128.129 77.2522C128.74 77.3507 129.349 77.4788 129.959 77.6354C130.57 77.7919 131.19 77.9711 131.822 78.1671C132.406 78.3475 132.978 78.5646 133.534 78.8171L133.949 74.032C133.2 73.7168 132.461 73.4408 131.733 73.2038C131.005 72.9685 130.265 72.7712 129.517 72.6129C128.786 72.4579 128.046 72.3494 127.301 72.2879C126.571 72.2288 125.852 72.1993 125.145 72.1993C123.513 72.1826 121.885 72.3712 120.3 72.7606C118.944 73.0899 117.655 73.6496 116.488 74.4151C115.431 75.1142 114.567 76.0694 113.977 77.1921C113.36 78.4289 113.055 79.7986 113.091 81.1806C113.073 82.176 113.233 83.1665 113.565 84.1054C113.845 84.8932 114.265 85.6239 114.805 86.2621C115.331 86.8652 115.937 87.3921 116.608 87.8279C117.305 88.2859 118.048 88.6718 118.823 88.98C119.255 89.1376 119.708 89.2948 120.182 89.4517C120.655 89.6103 121.117 89.7581 121.571 89.8949C122.025 90.0318 122.466 90.1717 122.899 90.3086C123.333 90.4455 123.756 90.5853 124.17 90.7221C124.583 90.859 124.987 90.989 125.382 91.1072C125.91 91.2941 126.424 91.521 126.917 91.7858C127.351 92.0153 127.758 92.2931 128.13 92.6139C128.456 92.8998 128.718 93.2525 128.897 93.648C129.078 94.0568 129.169 94.4998 129.164 94.9469C129.185 95.384 129.108 95.8203 128.939 96.2241C128.771 96.6278 128.514 96.9889 128.188 97.2809C127.457 97.8925 126.582 98.3095 125.647 98.4931C124.551 98.7347 123.432 98.8533 122.31 98.8466C121.608 98.8421 120.907 98.7932 120.212 98.7C119.444 98.6015 118.636 98.4636 117.789 98.2863C116.942 98.1091 116.076 97.8924 115.189 97.6363C114.303 97.3803 113.407 97.0947 112.501 96.7796L112.738 101.802C113.76 102.157 114.696 102.443 115.544 102.659C116.392 102.875 117.2 103.062 117.967 103.221C118.707 103.375 119.457 103.473 120.212 103.517C120.94 103.557 121.679 103.577 122.428 103.577C124.075 103.585 125.719 103.416 127.331 103.073C128.75 102.786 130.109 102.256 131.349 101.508C132.467 100.826 133.392 99.8702 134.038 98.7315C134.715 97.481 135.051 96.0747 135.012 94.6535C135.037 93.6169 134.867 92.585 134.51 91.6115C134.193 90.7914 133.721 90.0396 133.122 89.3967Z" fill="#EFB4ED"/>
<path d="M147.332 59.8824C146.719 59.5077 146.013 59.3132 145.294 59.3211C144.567 59.3156 143.852 59.5097 143.226 59.8824C142.61 60.243 142.093 60.7505 141.721 61.3596C141.345 61.9722 141.15 62.6786 141.158 63.3972C141.153 64.1251 141.347 64.8405 141.721 65.4652C142.082 66.0831 142.602 66.5931 143.226 66.9424C143.858 67.2967 144.57 67.4801 145.294 67.4742C146.009 67.4823 146.713 67.2986 147.332 66.9424C147.94 66.5903 148.44 66.0797 148.781 65.4652C149.135 64.8339 149.318 64.1211 149.312 63.3972C149.321 62.6827 149.137 61.9789 148.781 61.3596C148.429 60.7535 147.931 60.2455 147.332 59.8824Z" fill="#EFB4ED"/>
<path d="M142.162 102.986H148.189V72.2605L142.162 73.1468V102.986Z" fill="#EFB4ED"/>
<path d="M176.078 89.3967C175.473 88.755 174.776 88.207 174.01 87.7708C173.216 87.3171 172.386 86.9316 171.527 86.6185C170.898 86.4216 170.277 86.2148 169.667 85.9981C169.056 85.7815 168.446 85.5845 167.834 85.4073C167.224 85.23 166.633 85.0428 166.062 84.8459C165.526 84.6638 165.003 84.4464 164.497 84.195C164.011 83.937 163.546 83.6406 163.107 83.3087C162.702 83.0036 162.361 82.6218 162.104 82.1851C161.843 81.7372 161.71 81.2262 161.719 80.7079C161.703 80.1385 161.847 79.5761 162.133 79.0839C162.441 78.5997 162.869 78.2029 163.374 77.9317C163.992 77.5921 164.66 77.3525 165.354 77.2217C166.22 77.0559 167.101 76.977 167.983 76.9863C168.415 76.9863 168.889 77.0071 169.401 77.0455C169.913 77.0839 170.474 77.1538 171.085 77.2522C171.697 77.3507 172.305 77.4788 172.916 77.6354C173.526 77.7919 174.147 77.9711 174.778 78.1671C175.362 78.3475 175.934 78.5646 176.491 78.8171L176.905 74.032C176.156 73.7168 175.417 73.4408 174.689 73.2038C173.962 72.9685 173.222 72.7711 172.474 72.6129C171.743 72.4579 171.003 72.3494 170.258 72.2879C169.528 72.2288 168.81 72.1993 168.101 72.1993C166.469 72.1826 164.841 72.3712 163.256 72.7606C161.9 73.0899 160.611 73.6495 159.445 74.4151C158.387 75.1142 157.523 76.0695 156.934 77.1921C156.316 78.4289 156.012 79.7986 156.047 81.1806C156.029 82.176 156.19 83.1665 156.521 84.1054C156.801 84.8932 157.222 85.6239 157.762 86.2621C158.287 86.865 158.894 87.3919 159.564 87.8279C160.262 88.2859 161.004 88.6718 161.78 88.98C162.212 89.1376 162.665 89.2948 163.139 89.4517C163.613 89.6086 164.076 89.7564 164.527 89.8949C164.979 90.0341 165.422 90.172 165.856 90.3086C166.29 90.4452 166.713 90.583 167.126 90.7221C167.54 90.8607 167.944 90.989 168.339 91.1072C168.867 91.2941 169.381 91.521 169.875 91.7858C170.308 92.0156 170.715 92.2933 171.086 92.6139C171.413 92.8997 171.675 93.2524 171.853 93.648C172.034 94.0568 172.125 94.4998 172.12 94.9469C172.141 95.3839 172.064 95.8202 171.896 96.2239C171.727 96.6277 171.471 96.9887 171.145 97.2809C170.413 97.8923 169.539 98.3093 168.603 98.4931C167.508 98.7347 166.388 98.8533 165.266 98.8466C164.564 98.8421 163.864 98.7932 163.168 98.7C162.4 98.6015 161.593 98.4636 160.746 98.2863C159.899 98.1091 159.032 97.8924 158.145 97.6363C157.26 97.3803 156.364 97.0947 155.457 96.7796L155.694 101.802C156.717 102.157 157.653 102.443 158.5 102.659C159.348 102.875 160.156 103.062 160.923 103.221C161.663 103.375 162.414 103.473 163.168 103.517C163.896 103.557 164.635 103.577 165.384 103.577C167.032 103.585 168.676 103.416 170.287 103.073C171.707 102.786 173.066 102.256 174.306 101.508C175.424 100.825 176.349 99.8699 176.995 98.7315C177.671 97.4809 178.007 96.0747 177.969 94.6535C177.993 93.617 177.823 92.585 177.467 91.6115C177.149 90.7914 176.678 90.0396 176.078 89.3967Z" fill="#EFB4ED"/>
<path d="M203.322 102.986H211.122L196.789 86.8352L210.826 72.8513H203.44L193.329 83.9597H191.15V58.375L185.123 59.2612V102.986H191.15V88.5095H191.249L203.322 102.986Z" fill="#EFB4ED"/>
</svg>

<svg xmlns="http://www.w3.org/2000/svg" viewBox="0 0 212 104"><path fill="#fff" d="M0 43V1.004h13.78V43H0ZM32.528 7.688 40.453 43h-15.08L15.908 1.004h8.459a7.965 7.965 0 0 1 5.293 1.922 8.31 8.31 0 0 1 2.867 4.762ZM42.523 43V1.004h13.78V43h-13.78Zm24.189-26.026a8.213 8.213 0 0 1-4.228-1.124 8.336 8.336 0 0 1-3.046-3.046 8.206 8.206 0 0 1-1.125-4.229 8.056 8.056 0 0 1 1.125-4.2 8.437 8.437 0 0 1 3.046-3.016A8.232 8.232 0 0 1 66.712.235a8.083 8.083 0 0 1 4.199 1.124 8.503 8.503 0 0 1 3.016 3.016 8.075 8.075 0 0 1 1.125 4.2 8.226 8.226 0 0 1-1.125 4.23 8.4 8.4 0 0 1-3.016 3.045 8.059 8.059 0 0 1-4.201 1.124h.002ZM77.18 43V1.004h13.781V43H77.181Zm31.227-19.046c.039.04.334.524.887 1.449.553.925 1.272 2.108 2.159 3.549a1143.28 1143.28 0 0 1 5.589 9.168A854.89 854.89 0 0 0 120 43h-15.141c-.947-1.538-1.804-2.928-2.573-4.17a382.214 382.214 0 0 1-2.453-4.022 351.934 351.934 0 0 0-2.574-4.2 213.445 213.445 0 0 1-2.188-3.578 62.753 62.753 0 0 0-1.272-2.07 6.119 6.119 0 0 1-1.005-2.958 5.744 5.744 0 0 1 .946-2.84c.236-.394.67-1.095 1.3-2.1.632-1.006 1.371-2.198 2.219-3.579.847-1.38 1.706-2.79 2.574-4.229.869-1.439 1.686-2.79 2.453-4.052.77-1.26 1.628-2.66 2.573-4.2H120l-11.711 19.106a3.773 3.773 0 0 0-.592 1.894c.039.706.286 1.385.709 1.952h.002Z"/><path fill="#EFB4ED" d="M31.848 61.035h-7.386L8.41 79.529H6.204V61.035H0v41.952h6.204V84.02h.209l17.46 19.026 8.449-.06-20.03-20.799 19.556-21.152ZM46.354 98.643a5.203 5.203 0 0 1-.62.03 3.166 3.166 0 0 1-1.3-.237 2.114 2.114 0 0 1-.886-.739 3.211 3.211 0 0 1-.502-1.27 9.81 9.81 0 0 1-.148-1.83V58.375l-6.027.886v37.993a8.033 8.033 0 0 0 .473 2.925c.283.761.75 1.441 1.36 1.979.606.52 1.323.894 2.097 1.094.858.222 1.742.331 2.629.325a14.426 14.426 0 0 0 2.63-.237c.413-.078.758-.157 1.033-.236l.591-4.67c-.236.042-.472.081-.709.12-.236.037-.443.067-.621.088ZM79.295 99.264a2.691 2.691 0 0 1-2.304-.946 5.078 5.078 0 0 1-.65-3.13l.118-12.173a14.209 14.209 0 0 0-.473-3.782 9.283 9.283 0 0 0-1.418-3.013 7.99 7.99 0 0 0-2.452-2.186 12.49 12.49 0 0 0-3.575-1.359c-1.533-.331-3.1-.49-4.668-.473-1.244 0-2.487.079-3.721.237a25.64 25.64 0 0 0-3.458.678 28.926 28.926 0 0 0-3.102 1.035l-.709 5.023a33.74 33.74 0 0 1 2.807-.887 37.987 37.987 0 0 1 2.57-.59c.81-.156 1.63-.264 2.452-.326a32.77 32.77 0 0 1 2.394-.088 13.2 13.2 0 0 1 3.574.413c.851.213 1.635.64 2.275 1.241.57.584.977 1.307 1.181 2.097.253.974.372 1.978.356 2.985l-.007 1.483-6.907.467a18.35 18.35 0 0 0-6.854 1.536 9.815 9.815 0 0 0-4.048 3.28 7.63 7.63 0 0 0-1.33 4.342 8.638 8.638 0 0 0 1.035 4.165 7.775 7.775 0 0 0 3.131 3.103 10.534 10.534 0 0 0 5.23 1.182 13.575 13.575 0 0 0 4.992-.829 11.509 11.509 0 0 0 3.723-2.363 16.29 16.29 0 0 0 1.162-1.239c.115.612.331 1.2.64 1.741a4.762 4.762 0 0 0 2.305 2.009 8.63 8.63 0 0 0 3.367.62c.355 0 .7-.009 1.035-.03.328-.019.655-.068.974-.147.316-.08.6-.148.857-.207.231-.052.459-.121.68-.206l.65-3.96a5.179 5.179 0 0 1-1.005.237c-.274.037-.55.057-.827.06Zm-9.838-2.659a11.36 11.36 0 0 1-2.068 1.3 9.283 9.283 0 0 1-2.305.768c-.827.16-1.667.239-2.51.237a6.668 6.668 0 0 1-2.807-.532 3.864 3.864 0 0 1-1.743-1.508 4.417 4.417 0 0 1-.591-2.334 4.474 4.474 0 0 1 .768-2.776 4.512 4.512 0 0 1 2.481-1.477 17.97 17.97 0 0 1 4.61-.473h5.173l-.026 5.865c-.3.338-.628.649-.982.93ZM105.41 89.397a8.864 8.864 0 0 0-2.067-1.626 16.225 16.225 0 0 0-2.482-1.153c-.63-.196-1.25-.403-1.861-.62a32.912 32.912 0 0 0-1.832-.59 36.594 36.594 0 0 1-1.773-.562c-.535-.182-1.058-.4-1.565-.651-.486-.258-.95-.555-1.39-.886a3.872 3.872 0 0 1-1.004-1.124 2.843 2.843 0 0 1-.385-1.477 3.06 3.06 0 0 1 .416-1.624c.308-.484.736-.88 1.24-1.152a6.681 6.681 0 0 1 1.98-.71 13.238 13.238 0 0 1 2.63-.236c.432 0 .906.021 1.417.06.51.038 1.073.108 1.685.206.611.099 1.219.227 1.831.383.613.157 1.231.336 1.862.532.583.18 1.155.398 1.711.65l.416-4.785a28.353 28.353 0 0 0-2.216-.828 22.117 22.117 0 0 0-2.216-.591 17.727 17.727 0 0 0-2.216-.325c-.73-.06-1.447-.089-2.157-.089a19.488 19.488 0 0 0-4.845.562c-1.355.33-2.644.889-3.81 1.654a7.52 7.52 0 0 0-2.513 2.777 8.463 8.463 0 0 0-.886 3.989 8.356 8.356 0 0 0 .473 2.924 6.994 6.994 0 0 0 1.24 2.157 8.66 8.66 0 0 0 1.803 1.566c.698.458 1.44.844 2.216 1.152.432.158.885.315 1.36.472.472.158.934.306 1.388.443.454.137.894.277 1.33.414.435.136.855.276 1.269.413.413.137.817.267 1.211.385.529.187 1.043.414 1.537.679.434.23.84.507 1.212.828.326.286.588.639.768 1.034.179.41.27.852.265 1.299a2.956 2.956 0 0 1-.975 2.334 5.662 5.662 0 0 1-2.54 1.212c-1.097.242-2.216.36-3.338.354A16.59 16.59 0 0 1 92.5 98.7a31.223 31.223 0 0 1-2.421-.414 35.847 35.847 0 0 1-2.6-.65 52.197 52.197 0 0 1-2.689-.856l.235 5.022a35.12 35.12 0 0 0 2.807.857c.848.216 1.656.403 2.424.562.74.154 1.49.252 2.244.296.729.04 1.467.06 2.216.06a23.036 23.036 0 0 0 4.905-.504 12.625 12.625 0 0 0 4.018-1.565 7.72 7.72 0 0 0 2.688-2.777 8.108 8.108 0 0 0 .973-4.078 8.277 8.277 0 0 0-.501-3.041 6.909 6.909 0 0 0-1.389-2.215ZM133.122 89.397a8.909 8.909 0 0 0-2.069-1.626 16.08 16.08 0 0 0-2.482-1.153 51.09 51.09 0 0 1-1.861-.62 33.215 33.215 0 0 0-1.832-.59 37.48 37.48 0 0 1-1.773-.562c-.536-.182-1.058-.4-1.565-.651a10.326 10.326 0 0 1-1.389-.886 3.855 3.855 0 0 1-1.003-1.124 2.828 2.828 0 0 1-.386-1.477 3.063 3.063 0 0 1 .415-1.624 3.34 3.34 0 0 1 1.241-1.152 6.68 6.68 0 0 1 1.979-.71 13.248 13.248 0 0 1 2.629-.236 19.164 19.164 0 0 1 3.103.266c.611.099 1.22.227 1.83.383.611.157 1.231.336 1.863.532.584.18 1.156.398 1.712.65l.415-4.785a28.315 28.315 0 0 0-2.216-.828 22.054 22.054 0 0 0-2.216-.591 17.704 17.704 0 0 0-2.216-.325 26.72 26.72 0 0 0-2.156-.089 19.474 19.474 0 0 0-4.845.562c-1.356.329-2.645.889-3.812 1.654a7.529 7.529 0 0 0-2.511 2.777 8.444 8.444 0 0 0-.886 3.989 8.32 8.32 0 0 0 .474 2.924c.28.788.7 1.519 1.24 2.157a8.627 8.627 0 0 0 1.803 1.566c.697.458 1.44.844 2.215 1.152.432.158.885.315 1.359.472.473.158.935.306 1.389.443.454.137.895.277 1.328.414.434.136.857.276 1.271.413.413.137.817.267 1.212.385a11.01 11.01 0 0 1 1.535.679c.434.23.841.507 1.213.828.326.286.588.638.767 1.034.181.409.272.852.267 1.299a2.943 2.943 0 0 1-.976 2.334 5.661 5.661 0 0 1-2.541 1.212c-1.096.242-2.215.36-3.337.354a16.588 16.588 0 0 1-2.098-.147 31.271 31.271 0 0 1-2.423-.414 35.821 35.821 0 0 1-2.6-.65 52.817 52.817 0 0 1-2.688-.856l.237 5.022c1.022.355 1.958.641 2.806.857.848.216 1.656.403 2.423.562.74.154 1.49.252 2.245.296.728.04 1.467.06 2.216.06a23.023 23.023 0 0 0 4.903-.504 12.625 12.625 0 0 0 4.018-1.565 7.705 7.705 0 0 0 2.689-2.776 8.099 8.099 0 0 0 .974-4.079 8.256 8.256 0 0 0-.502-3.041 6.9 6.9 0 0 0-1.388-2.215ZM147.332 59.882a3.826 3.826 0 0 0-2.038-.56 3.983 3.983 0 0 0-2.068.56 4.322 4.322 0 0 0-1.505 1.478 3.814 3.814 0 0 0-.563 2.037 3.972 3.972 0 0 0 .563 2.068 4.014 4.014 0 0 0 1.505 1.477 4.158 4.158 0 0 0 2.068.532 3.996 3.996 0 0 0 2.038-.532 3.883 3.883 0 0 0 1.449-1.477 4.158 4.158 0 0 0 .531-2.068 3.989 3.989 0 0 0-.531-2.037 4.184 4.184 0 0 0-1.449-1.478ZM142.162 102.986h6.027V72.26l-6.027.887v29.839ZM176.078 89.397a8.885 8.885 0 0 0-2.068-1.626 16.154 16.154 0 0 0-2.483-1.153 51.688 51.688 0 0 1-1.86-.62 32.707 32.707 0 0 0-1.833-.59 37.806 37.806 0 0 1-1.772-.562c-.536-.182-1.059-.4-1.565-.651a10.36 10.36 0 0 1-1.39-.886 3.855 3.855 0 0 1-1.003-1.124 2.836 2.836 0 0 1-.385-1.477 3.062 3.062 0 0 1 .414-1.624 3.349 3.349 0 0 1 1.241-1.152 6.68 6.68 0 0 1 1.98-.71 13.241 13.241 0 0 1 2.629-.236 19.138 19.138 0 0 1 3.102.266c.612.099 1.22.227 1.831.383.61.157 1.231.336 1.862.532.584.18 1.156.398 1.713.65l.414-4.785a28.315 28.315 0 0 0-2.216-.828 21.938 21.938 0 0 0-2.215-.591 17.704 17.704 0 0 0-2.216-.325c-.73-.06-1.448-.089-2.157-.089a19.474 19.474 0 0 0-4.845.562 12.18 12.18 0 0 0-3.811 1.654 7.512 7.512 0 0 0-2.511 2.777 8.444 8.444 0 0 0-.887 3.989 8.344 8.344 0 0 0 .474 2.924c.28.788.701 1.519 1.241 2.157a8.634 8.634 0 0 0 1.802 1.566c.698.458 1.44.844 2.216 1.152.432.158.885.315 1.359.472.474.157.937.304 1.388.443.452.14.895.277 1.329.414.434.136.857.274 1.27.413.414.139.818.267 1.213.385.528.187 1.042.414 1.536.679.433.23.84.507 1.211.828a3.02 3.02 0 0 1 1.034 2.333 2.956 2.956 0 0 1-.975 2.334 5.669 5.669 0 0 1-2.542 1.212c-1.095.242-2.215.36-3.337.354a16.6 16.6 0 0 1-2.098-.147 31.25 31.25 0 0 1-2.422-.414 35.844 35.844 0 0 1-2.601-.65 53.462 53.462 0 0 1-2.688-.856l.237 5.022a35.11 35.11 0 0 0 2.806.857c.848.216 1.656.403 2.423.562.74.154 1.491.252 2.245.296.728.04 1.467.06 2.216.06a23.01 23.01 0 0 0 4.903-.504 12.622 12.622 0 0 0 4.019-1.565 7.716 7.716 0 0 0 2.689-2.776 8.12 8.12 0 0 0 .974-4.079 8.298 8.298 0 0 0-.502-3.041 6.903 6.903 0 0 0-1.389-2.215ZM203.322 102.986h7.8l-14.333-16.15 14.037-13.985h-7.386L193.329 83.96h-2.179V58.375l-6.027.886v43.725h6.027V88.509h.099l12.073 14.477Z"/></svg>
